X: 155
T: Missa De beata virgine / Agnus Dei
N: Derived from Rue1035e-Missa_De_beata_virgine-Agnus.krn
C: Pierre de la Rue
%%abc-version 2.0
%%abcx-abcm2ps-target-version 5.9.1 (29 Sep 2008)
%%abc-creator hum2abc beta
%%abcx-conversion-date 2019/02/17 08:01:16
%%abc-edited-by Jesse Rodin
%%abc-edited-by Chris Gage 06-05-2012
%%abcx-initial-encoding-date 2012/06/05/
%%humdrum-veritas 865126262
%%humdrum-veritas-data 1889079203
%%linebreak <none>
%%barnumbers 0
L: 1/4
M: 3/1
Q: 1/2=120
V: 1 clef=treble
V: 2 clef=treble
V: 3 clef=treble-8
V: 4 clef=treble-8
V: 5 clef=bass
K: C
[V:1] z12 | 
[V:2] z12 | 
[V:3] z12 | 
[V:4] c8d4- | 
[V:5] C6B,A,B,2G,2- | 
[V:1] z12 | 
[V:2] z12 | 
[V:3] z12 | 
[V:4] d4d8 | 
[V:5] G,2F,E,F,2G,2D,2G,2- | 
[V:1] z12 | 
[V:2] z12 | 
[V:3] z12 | 
[V:4] e8d3c | 
[V:5] G,F,E,D,C,2C2B,2G,2- | 
[V:1] z12 | 
[V:2] z12 | 
[V:3] z12 | 
[V:4] d2e3dc4B2 | 
[V:5] G,F,G,2E,2F,2D,4 | 
[V:1] z12 | 
[V:2] G8A4- | 
[V:3] z4c6de | 
[V:4] c12 | 
[V:5] C,6D,E,F,4- | 
[V:1] z12 | 
[V:2] A4A8 | 
[V:3] f6edd4- | 
[V:4] z12 | 
[V:5] F,2E,D,D,6E,F, | 
[V:1] z12 | 
[V:2] B8A3G | 
[V:3] d2efg4z2f2- | 
[V:4] z12 | 
[V:5] G,8D,3E, | 
[V:1] z12 | 
[V:2] A2B3AG4^F2 | 
[V:3] fedcd2e2c4 | 
[V:4] z12 | 
[V:5] F,2G,2B,2C2A,4 | 
[V:1] z12 | 
[V:2] G12 | 
[V:3] d3cd2e4dc | 
[V:4] z4z4c4 | 
[V:5] G,8C,4 | 
[V:1] z4z4c4 | 
[V:2] z12 | 
[V:3] B3AB2c4BA | 
[V:4] d4e8 | 
[V:5] G,6E,2A,4 | 
[V:1] d4e4g3f | 
[V:2] z12 | 
[V:3] B8z2B2 | 
[V:4] g6f2e2d2 | 
[V:5] G,3F,E,2D,2C,2G,2 | 
[V:1] e2d2c2B2A4 | 
[V:2] z12 | 
[V:3] c2d2e4A4 | 
[V:4] c2f3ee4d2 | 
[V:5] A,2D,2A,2E,2F,4 | 
[V:1] G4g3fede2- | 
[V:2] z4z4G4 | 
[V:3] B2c2G2cdefg2- | 
[V:4] e12 | 
[V:5] E,6C,2C3B, | 
[V:1] e2c2B2G2d4- | 
[V:2] A4B8 | 
[V:3] g2f2g4d3c | 
[V:4] z12 | 
[V:5] A,4G,8 | 
[V:1] d2c2B2A2G4 | 
[V:2] d6c2B2A2 | 
[V:3] B2A2G4g4 | 
[V:4] z12 | 
[V:5] z4z4G,4 | 
[V:1] z12 | 
[V:2] G2c3BB4A2 | 
[V:3] e3defg4^f2 | 
[V:4] z4z4c4 | 
[V:5] C3B,A,2G,2A,4 | 
[V:1] z4z4G4 | 
[V:2] B12 | 
[V:3] g4z2G3ABG | 
[V:4] d8e4 | 
[V:5] G,8E,4 | 
[V:1] A8B4 | 
[V:2] z12 | 
[V:3] d2c2f2e2g2G2 | 
[V:4] f3ed2c2d4 | 
[V:5] D,3E,F,2A,2G,4 | 
[V:1] c3BA2G2A4 | 
[V:2] z12 | 
[V:3] [M:3/1](3:2:8c3de2f2d2g4e2^f2 | 
[V:4] e4z4c4 | 
[V:5] C,2C2D2B,2A,4 | 
[V:1] B3cd4z2g2 | 
[V:2] z4z4G4 | 
[V:3] [M:3/1]g2GABcd2GABG | 
[V:4] d8e4 | 
[V:5] G,6F,2E,4 | 
[V:1] f2d2f2e2d4 | 
[V:2] A8B4 | 
[V:3] d4z4z2g2- | 
[V:4] f3ed2c2d4 | 
[V:5] D,4z4G,4 | 
[V:1] e4z4c4 | 
[V:2] c3BA2G2A4 | 
[V:3] g2e2f2g2cdec | 
[V:4] c12 | 
[V:5] C,4F,2E,2A,4 | 
[V:1] d8e4 | 
[V:2] B4z4G4 | 
[V:3] g8z2g2 | 
[V:4] z12 | 
[V:5] G,6F,2E,4 | 
[V:1] f6e2d4 | 
[V:2] A8B4 | 
[V:3] f3ed2c2d4 | 
[V:4] z12 | 
[V:5] D,4z4G,4 | 
[V:1] e8c4 | 
[V:2] c3BA2G2A4 | 
[V:3] c3de4A4 | 
[V:4] c12- | 
[V:5] E,2A,3G,E,2F,3E, | 
[V:1] c12 ||  
[V:2] G12 ||  
[V:3] e12 ||  
[V:4] c12 ||  
[V:5] C,12 ||  
[V:1]  [K:C] [M:2/1]z8 | 
[V:2]  [K:C] [M:2/1]z8 | 
[V:3]  [K:C] [M:2/1]c8- | 
[V:4]  [K:C] [M:2/1]z8 | 
[V:5]  [K:C] [M:2/1]C,6D,2 | 
[V:1] z8 | 
[V:2] z8 | 
[V:3] c8- | 
[V:4] z8 | 
[V:5] E,4F,4 | 
[V:1] z8 | 
[V:2] z8 | 
[V:3] c8- | 
[V:4] z8 | 
[V:5] C,4F,4- | 
[V:1] z8 | 
[V:2] z8 | 
[V:3] c8 | 
[V:4] z8 | 
[V:5] F,2G,2A,2B,2 | 
[V:1] z8 | 
[V:2] z8 | 
[V:3] e6f2 | 
[V:4] z8 | 
[V:5] C4C,4- | 
[V:1] z8 | 
[V:2] z8 | 
[V:3] g4c4- | 
[V:4] z8 | 
[V:5] C,2D,2E,4 | 
[V:1] z8 | 
[V:2] z8 | 
[V:3] c2d2e4 | 
[V:4] z8 | 
[V:5] F,4C,4 | 
[V:1] z8 | 
[V:2] z8 | 
[V:3] f4c4- | 
[V:4] z8 | 
[V:5] F,3G,A,2B,2 | 
[V:1] z8 | 
[V:2] z8 | 
[V:3] c2d2e2f2 | 
[V:4] z8 | 
[V:5] C4C,4- | 
[V:1] z8 | 
[V:2] z8 | 
[V:3] g4G2A2 | 
[V:4] z8 | 
[V:5] C,2D,2E,2F,2 | 
[V:1] z8 | 
[V:2] z8 | 
[V:3] B2c2d2e2- | 
[V:4] z8 | 
[V:5] G,2A,2B,2C2- | 
[V:1] z8 | 
[V:2] z8 | 
[V:3] edg3^f^fe | 
[V:4] z8 | 
[V:5] CB,A,G,A,4 | 
[V:1] z8 | 
[V:2] z8 | 
[V:3] g8 | 
[V:4] z8 | 
[V:5] G,6F,E, | 
[V:1] z8 | 
[V:2] z8 | 
[V:3] z8 | 
[V:4] z8 | 
[V:5] A,2G,3F,E,D, | 
[V:1] z8 | 
[V:2] z8 | 
[V:3] g6fe | 
[V:4] z8 | 
[V:5] C,8 | 
[V:1] z8 | 
[V:2] z8 | 
[V:3] a2g3fed | 
[V:4] z8 | 
[V:5] z4C4 | 
[V:1] z8 | 
[V:2] z8 | 
[V:3] c8 | 
[V:4] z8 | 
[V:5] E8 | 
[V:1] z8 | 
[V:2] z8 | 
[V:3] z4f4 | 
[V:4] z8 | 
[V:5] D8 | 
[V:1] z8 | 
[V:2] z8 | 
[V:3] a8 | 
[V:4] z8 | 
[V:5] C6B,A, | 
[V:1] z8 | 
[V:2] z8 | 
[V:3] g8 | 
[V:4] z8 | 
[V:5] B,4C4 | 
[V:1] z8 | 
[V:2] z8 | 
[V:3] f6ed | 
[V:4] z8 | 
[V:5] D6CB, | 
[V:1] z8 | 
[V:2] z8 | 
[V:3] e2f2g4- | 
[V:4] z8 | 
[V:5] A,4G,4 | 
[V:1] z8 | 
[V:2] z8 | 
[V:3] g2f2e2d2 | 
[V:4] z8 | 
[V:5] C6B,2 | 
[V:1] z8 | 
[V:2] z8 | 
[V:3] c4f4- | 
[V:4] z8 | 
[V:5] A,2G,2F,2E,2 | 
[V:1] z8 | 
[V:2] z8 | 
[V:3] f2ede2g2- | 
[V:4] z8 | 
[V:5] D,4C,4 | 
[V:1] z8 | 
[V:2] z8 | 
[V:3] g2f2e2d2 | 
[V:4] z8 | 
[V:5] C6B,2 | 
[V:1] z8 | 
[V:2] z8 | 
[V:3] f2e3dg2 | 
[V:4] z8 | 
[V:5] A,2G,2C3B, | 
[V:1] z8 | 
[V:2] z8 | 
[V:3] f2e3dg2 | 
[V:4] z8 | 
[V:5] A,2G,2C3B, | 
[V:1] z8 | 
[V:2] z8 | 
[V:3] f2e4d2 | 
[V:4] z8 | 
[V:5] A,2G,2F,4 | 
[V:1] z8 | 
[V:2] z8 | 
[V:3] e8 | 
[V:4] z8 | 
[V:5] E,8- | 
[V:1] z8 | 
[V:2] z8 | 
[V:3] z8 | 
[V:4] z8 | 
[V:5] E,8 | 
[V:1] z8 | 
[V:2] z8 | 
[V:3] e8 | 
[V:4] z8 | 
[V:5] z4A,4- | 
[V:1] z8 | 
[V:2] z8 | 
[V:3] c8 | 
[V:4] z8 | 
[V:5] A,4F,4- | 
[V:1] z8 | 
[V:2] z8 | 
[V:3] d8- | 
[V:4] z8 | 
[V:5] F,4G,4- | 
[V:1] z8 | 
[V:2] z8 | 
[V:3] d8 | 
[V:4] z8 | 
[V:5] G,4F,4- | 
[V:1] z8 | 
[V:2] z8 | 
[V:3] c6BA | 
[V:4] z8 | 
[V:5] F,2E,D,E,2F,2 | 
[V:1] z8 | 
[V:2] z8 | 
[V:3] B2c2d4- | 
[V:4] z8 | 
[V:5] G,6F,E, | 
[V:1] z8 | 
[V:2] z8 | 
[V:3] d2cBc2d2 | 
[V:4] z8 | 
[V:5] F,2G,2A,4- | 
[V:1] z8 | 
[V:2] z8 | 
[V:3] e6dc | 
[V:4] z8 | 
[V:5] A,2G,F,G,2A,2 | 
[V:1] z8 | 
[V:2] z8 | 
[V:3] d2e2f4- | 
[V:4] z8 | 
[V:5] _B,6A,G, | 
[V:1] z8 | 
[V:2] z8 | 
[V:3] f2ede2f2 | 
[V:4] z8 | 
[V:5] A,2B,2C4- | 
[V:1] z8 | 
[V:2] z8 | 
[V:3] g6fe | 
[V:4] z8 | 
[V:5] C2B,A,B,2C2 | 
[V:1] z8 | 
[V:2] z8 | 
[V:3] f2g2c2g2- | 
[V:4] z8 | 
[V:5] F,2C4B,A, | 
[V:1] z8 | 
[V:2] z8 | 
[V:3] g2fef2g2 | 
[V:4] z8 | 
[V:5] B,2C2A,2G,2- | 
[V:1] z8 | 
[V:2] z8 | 
[V:3] e2d2f3e | 
[V:4] z8 | 
[V:5] G,A,_B,3A,F,G, | 
[V:1] z8 | 
[V:2] z8 | 
[V:3] c3defg2- | 
[V:4] z8 | 
[V:5] A,B,C2C,D,E,F, | 
[V:1] z8 | 
[V:2] z8 | 
[V:3] gfedf2e2- | 
[V:4] z8 | 
[V:5] G,3F,A,2G,2- | 
[V:1] z8 | 
[V:2] z8 | 
[V:3] edc4B2 | 
[V:4] z8 | 
[V:5] G,2E,2F,2G,2 | 
[V:1] z8 | 
[V:2] z8 | 
[V:3] c3defg2- | 
[V:4] z8 | 
[V:5] C,D,E,F,G,2C,2 | 
[V:1] z8 | 
[V:2] z8 | 
[V:3] gfedf2e2- | 
[V:4] z8 | 
[V:5] C3B,A,2G,2 | 
[V:1] z8 | 
[V:2] z8 | 
[V:3] edc4B2 | 
[V:4] z8 | 
[V:5] F,2E,2D,4 | 
[V:1] z8 | 
[V:2] z8 | 
[V:3] c8 | 
[V:4] z8 | 
[V:5] C,3D,E,2F,2 | 
[V:1] z8 | 
[V:2] z8 | 
[V:3] z4c4 | 
[V:4] z8 | 
[V:5] C,2F,G,A,B,C2- | 
[V:1] z8 | 
[V:2] z8 | 
[V:3] d3cd2e2- | 
[V:4] z8 | 
[V:5] C2B,A,B,2C2 | 
[V:1] z8 | 
[V:2] z8 | 
[V:3] edecd2e2- | 
[V:4] z8 | 
[V:5] G,3A,B,2C2 | 
[V:1] z8 | 
[V:2] z8 | 
[V:3] edecd4 | 
[V:4] z8 | 
[V:5] G,2C3B,B,A, | 
[V:1] z8 ||  
[V:2] z8 ||  
[V:3] c8 ||  
[V:4] z8 ||  
[V:5] C8 ||  
[V:1]  [K:C] [M:2/1]z8 | 
[V:2]  [K:C] [M:2/1]z8 | 
[V:3]  [K:C] [M:2/1]z8 | 
[V:4]  [K:C] [M:2/1]c4d4 | 
[V:5]  [K:C] [M:2/1]z4F,4 | 
[V:1] z8 | 
[V:2] z8 | 
[V:3] z8 | 
[V:4] d4e4- | 
[V:5] G,4G,4 | 
[V:1] c3BA2G2 | 
[V:2] z8 | 
[V:3] z8 | 
[V:4] e2c2d2e2- | 
[V:5] A,4F,2G,2- | 
[V:1] B2c2d4 | 
[V:2] z8 | 
[V:3] z8 | 
[V:4] edc4B2 | 
[V:5] G,2E,2D,4 | 
[V:1] e8 | 
[V:2] G4A4 | 
[V:3] z4c4 | 
[V:4] c8 | 
[V:5] C,8 | 
[V:1] z8 | 
[V:2] A4B4- | 
[V:3] d4d4 | 
[V:4] z8 | 
[V:5] z8 | 
[V:1] z8 | 
[V:2] B2G2A2B2- | 
[V:3] e4c2d2- | 
[V:4] z8 | 
[V:5] z8 | 
[V:1] z4c4 | 
[V:2] BAG4^F2 | 
[V:3] d2B2A4 | 
[V:4] z8 | 
[V:5] z8 | 
[V:1] B2G2c4 | 
[V:2] G8 | 
[V:3] G4z2e2 | 
[V:4] z4c4 | 
[V:5] z4C,4 | 
[V:1] B3AB2c2 | 
[V:2] z8 | 
[V:3] d2g4e2 | 
[V:4] d6c2 | 
[V:5] G,3F,G,2A,2 | 
[V:1] A2B3Gc2 | 
[V:2] z8 | 
[V:3] fedcB2A2 | 
[V:4] d4e2c2 | 
[V:5] F,2G,3E,A,2 | 
[V:1] B2G2A4 | 
[V:2] z8 | 
[V:3] B2c2A3B | 
[V:4] d2e4d2 | 
[V:5] G,2E,2F,4 | 
[V:1] G4z2g2- | 
[V:2] z4G4 | 
[V:3] c2B2e4 | 
[V:4] e8 | 
[V:5] E,8 | 
[V:1] g2fef2g2 | 
[V:2] A6G2 | 
[V:3] d3cd2e2 | 
[V:4] z8 | 
[V:5] z8 | 
[V:1] e2f2d2g2 | 
[V:2] A4B2G2 | 
[V:3] c2d2B2e2 | 
[V:4] z8 | 
[V:5] z8 | 
[V:1] f2d2e4 | 
[V:2] A2B4A2 | 
[V:3] d2B2c4 | 
[V:4] z8 | 
[V:5] z8 | 
[V:1] d8 | 
[V:2] B8 | 
[V:3] B4G4 | 
[V:4] z4g4 | 
[V:5] z2G,4F,E, | 
[V:1] z8 | 
[V:2] z8 | 
[V:3] d3efga2- | 
[V:4] f6e2 | 
[V:5] D,2D4C2 | 
[V:1] z8 | 
[V:2] z8 | 
[V:3] agg4^f2 | 
[V:4] d4c4 | 
[V:5] B,2G,2A,4 | 
[V:1] z8 | 
[V:2] z8 | 
[V:3] g4e2f2- | 
[V:4] d4c4 | 
[V:5] G,4A,4 | 
[V:1] z8 | 
[V:2] z4d4 | 
[V:3] fedcB4 | 
[V:4] d8 | 
[V:5] F,4G,4 | 
[V:1] z8 | 
[V:2] c6B2 | 
[V:3] c3defg2- | 
[V:4] e8 | 
[V:5] C,8 | 
[V:1] c3defg2- | 
[V:2] A4G4 | 
[V:3] g2f2g2e2 | 
[V:4] z8 | 
[V:5] z8 | 
[V:1] g2f2g2e2- | 
[V:2] A4G4 | 
[V:3] d4e4 | 
[V:4] z8 | 
[V:5] z8 | 
[V:1] edcBA4 | 
[V:2] A8 | 
[V:3] c4d4 | 
[V:4] z8 | 
[V:5] z8 | 
[V:1] G8 | 
[V:2] B8 | 
[V:3] G4g4 | 
[V:4] d4e4 | 
[V:5] z4G,4 | 
[V:1] z8 | 
[V:2] z8 | 
[V:3] e4f4 | 
[V:4] c4d4 | 
[V:5] A,4F,4 | 
[V:1] z8 | 
[V:2] z8 | 
[V:3] d3cBAG2 | 
[V:4] z4d4 | 
[V:5] G,4z4 | 
[V:1] z8 | 
[V:2] z8 | 
[V:3] g4e2f2- | 
[V:4] e4c4 | 
[V:5] G,4A,4 | 
[V:1] z4d4 | 
[V:2] A4B4 | 
[V:3] fedcBcdB | 
[V:4] d8 | 
[V:5] F,2F,2G,4 | 
[V:1] e4c4 | 
[V:2] G4A4 | 
[V:3] c4z2f2 | 
[V:4] z8 | 
[V:5] C,4F,4- | 
[V:1] d4z4 | 
[V:2] z4A4 | 
[V:3] d2f3edc | 
[V:4] z8 | 
[V:5] F,2F,2F,2F,2 | 
[V:1] d4e3d | 
[V:2] B4G4 | 
[V:3] BcdBc4- | 
[V:4] z8 | 
[V:5] G,4C,4 | 
[V:1] cBc3BcA | 
[V:2] A8 | 
[V:3] c2def2e2 | 
[V:4] z4c4 | 
[V:5] F,3F,F,2A,2 | 
[V:1] B4c4- | 
[V:2] z8 | 
[V:3] g4z2g2 | 
[V:4] d4e4 | 
[V:5] G,4C,4 | 
[V:1] c2def3e | 
[V:2] z8 | 
[V:3] a4f4- | 
[V:4] f3edcf2- | 
[V:5] F,6F,2 | 
[V:1] dcc4B2 | 
[V:2] z8 | 
[V:3] f2f2g4 | 
[V:4] fedcd4 | 
[V:5] F,2A,2G,4 | 
[V:1] c2g2e2g2 | 
[V:2] z4G4 | 
[V:3] e4e2e2 | 
[V:4] c8 | 
[V:5] C,4C,2C,2 | 
[V:1] f3ed4 | 
[V:2] A4B4 | 
[V:3] f2f2g4 | 
[V:4] z8 | 
[V:5] F,2D,2G,4 | 
[V:1] c4z4 | 
[V:2] c3BAGc2- | 
[V:3] e2f4f2 | 
[V:4] c8- | 
[V:5] C,2F,4F,2 | 
[V:1] c6c2 | 
[V:2] cBAGA4 | 
[V:3] f2f2f4 | 
[V:4] c8- | 
[V:5] F,2F,2F,4 | 
[V:1] c2c2c3d | 
[V:2] G8- | 
[V:3] e8- | 
[V:4] c8- | 
[V:5] C,8- | 
[V:1] e8 |]  
[V:2] G8 |]  
[V:3] e8 |]  
[V:4] c8 |]  
[V:5] C,8 |]  



